X:1
T:Frauenliebe und Leben
T:Ich kann's nicht fassen, nicht glauben
T:3. Ich kann's nicht fassen, nicht glauben
T:Robert Schumann
T:Frauenliebe und Leben, Op.42
T:Adelbert von Chamisso
T:OpenScore (CC0)
T:OpenScore (CC0)
C:Robert Schumann
Z:Adelbert von Chamisso
Z:OpenScore (CC0)
%%score 1 { ( 2 5 ) | ( 3 4 ) }
L:1/8
Q:1/4=120
M:3/8
K:Eb
V:1 treble nm="Voice"
V:2 treble nm="Piano"
V:5 treble 
V:3 bass 
V:4 bass 
V:1
!f!"^\nMit Leidenschaft." G | G2 G | G G G | c2 G | z z G | A2 A | G G3/2 G/ | ^F3- | F z!mp! ^F | %9
w: Ich|kann's nicht|fas- sen, nicht|glau- ben,|es|hat ein|Traum mich be-|rückt;|_ wie|
 =F =F =F |{/F} d2 d | d2 c | z z E | D D D |[Q:1/4=115]"^ritard." G G[Q:1/4=113] G | C3 | %16
w: hätt' er doch|un- ter|Al- len|mich|Ar- me er-|höht und be-|glückt?|
[Q:1/4=110]"^Etwas langsamer." z z!p! E | E2 E | F F F | F2 F | z z ^F | %21
w: Mir|war's, er|ha- be ge-|spro- chen:|ich|
[Q:1/4=100]"^ritard."!<(! G2 G |{/G} B2!<)! G | =F3- | =F2 ^F | G2 G | =A3/2 A/ A | =A2 A | %28
w: bin auf|e- wig|dein,|_ mir|war's, ich|träu- me noch|im- mer,|
 z z =A | B2 B | _d3/2 d/ d | c3- | c z c | c2 c |[Q:1/4=85]"^ritard." f3/2 f/ e | =d3 | %36
w: es|kann ja|nim- mer so|sein,|_ es|kann ja|nim- mer so|sein!|
 !fermata!z z!f! B | B2 B | B B B | e3 | B z B | c c c | B2 B | =A3- | A2 =A | _A3/2 A/ A | f2 f | %47
w: O|lass im|Trau- me mich|ster-|ben, ge-|wie- get an|sei- ner|Brust,|_ den|se- lig- sten|Tod mich|
 f2 e | z z e |[Q:1/4=75]"^Adagio." e d c |[Q:1/4=70] c =B c | %51
w: schlür- fen|in|Thrä- nen un-|end- li- cher|
[Q:1/4=120]"^a tempo"[Q:1/4=120]"_a tempo" G2 x | z z!p! G | G2 G | G G G | c2 G | z z G | A2 A | %58
w: Lust.|Ich|kann's nicht|fas- sen, nicht|glau- ben|es|hat ein|
 G G3/2 G/ | ^F3- | F z!mp! ^F | =F F F |{/F} d2 d | d2 c | z z E | D D D | %66
w: Traum mich be-|rückt;|_ wie|hätt' er doch|un- ter|Al- len|mich|Ar- me er-|
[Q:1/4=110]"^ritard." G G G |[Q:1/4=100] C3 | z3 | z3 | z3 | z3 | z3 | z3 | z3 | z3 | z z!p! c | %77
w: höht und be-|glückt?|||||||||Ich|
 c2 c |[Q:1/4=95]"^cresc." c c c |[Q:1/4=91] f3 |[Q:1/4=87] e2 d |[Q:1/4=83] c2 c | %82
w: kann's nicht|fas- sen, nicht|glau-|ben, es|hat ein|
[Q:1/4=79] e e d |[Q:1/4=75] c3- | c3 |[Q:1/4=40] z3 |[Q:1/4=60] !fermata!z3 |] %87
w: Traum mich be-|rückt.|_|||
V:2
 z |!f! .[CEG]2 z |!<(! .[=B,FG]2 z | .[CEG]2 z | .[CGB]2 z | .[CFA]2!<)! z | .[CEG]2 z | %7
 !>![CE^F]3- | [CEF]3 |!p! .[G,D=F]2 z | z z .[G,DF] | .[G,CE]2 z | .[A,CE]2 z | .[A,CD]2 z | %14
"^ritard." .[=B,D]2 z | .C2 z |!p! ([G,CE]3- | [G,CE-]3 | [=A,EF]3 | [B,-D-F]3 | [B,-D^F]3 | %21
"^ritard."!<(! [B,EG]3 | [B,GB]2!<)!!>(! [EG] | [DF]3!>)! | [_A,D^F]3) | [G,EG]3 | [^C=A]3 | %27
 [D=A]3 | [=C^F=A]3 | [B,GB]3 | ((!>![_DE-B-_d]3 | [CEBc]3)) | [C-Bc-]3 |!<(! [CAc]3!<)! | %34
"^ritard." [Fcf]2 [E_ce] |!>(! [=DB=d]3- | !fermata![DBd]2!>)! z |!<(! .[EGB]2 z | .[DAB]2!<)! z | %39
 .[EGB]2 z | .[B,EB]2 z | .[CEAc]2 z | .[B,EGB]2 z | [=A,E_G=A]3- | [A,EGA]3 |!f! .[_A,B,F_A]2 z | %46
 z z .[A,B,FA] | .[G,B,EG]2 z | .[CEG]2 z |"^dim." ([C-E-G]3 | [CE^F]3) |!f!!<(! .[CEG]2 z | %52
!f! .[=B,DG]2!<)! z |!p! .[CEG]2 z |!<(! .[=B,FG]2 z | .[CEG]2 z | .[CGB]2 z | .[CFA]2!<)! z | %58
 .[CEG]2 z | !>![CE^F]3- | [CEF]3 |!p! .[G,D=F]2 z | z z .[A,DF] | .[G,CE]2 z | .[A,CE]2 z | %65
 .[A,CD]2 z |"^ritard." .[=B,D]2 z | .C2 z | z z c- | c2 c- | cdc | (!>!f2 c-) | c2 c- | c2 c- | %74
 cdc | (!>!a2 c-) | c2 c- | c2 c- |"^dim." cdc |{Fc} (c'2 a | f2 d) | !arpeggio!c3 | !fermata!=B3 | %83
 c2 _B | =A2 x/ _A/ | G3- | !fermata!G2 z |] %87
V:3
 z | .[C,,C,]2 z | .[D,,D,]2 z | .[E,,E,]2 z | .[=E,,=E,]2 z | .[F,,F,]2 z | .[G,,G,]2 z | %7
 [=A,,=A,]3- | [A,,A,]3 | .[=B,,,=B,,]2 z | z z .[=B,,,=B,,] | .[C,,C,]2 z | .[A,,,A,,]2 z | %13
 .[F,,,F,,]2 z | [F,G,]2 z | [E,G,]2 z | (C,3- | C,3 | _C,3 | B,,3- | _A,3) | G,3 | E,2 G, | B,3 | %24
 B,3- | B,3 | [E,G,]3 | [D,^F,]3 | [D,,D,-]3 | [G,,D,]3 | ([G,,E,-]3 | [A,,E,]3) | [A,,-=E,]3 | %33
 [A,,F,]3 | C2 _C |!>(! [A,B,F]3- | !fermata![A,B,F]2!>)! z | .[G,B,]2 z | .[F,B,]2 z | %39
 .[E,B,]2 z | .[G,,E,G,]2 z | .[A,,A,]2 z | .[B,,E,B,]2 z | [C,E,C]3- | [C,E,C]3 | .[D,,D,]2 z | %46
 z z .[D,,D,] | .[E,,E,]2 z | .[C,,C,]2 z | [_A,,,_A,,]3- | [A,,,A,,]3 | .[G,,,G,,]2 z | %52
 .[G,,,G,,]2 z | .[C,,C,]2 z | .[D,,D,]2 z | .[E,,E,]2 z | .[=E,,=E,]2 z | .[F,,F,]2 z | %58
 .[G,,G,]2 z | [=A,,=A,]3- | [A,,A,]3 | .[=B,,,=B,,]2 z | z z .[=B,,,=B,,] | .[C,,C,]2 z | %64
 .[A,,,A,,]2 z | .[F,,,F,,]2 z | [F,G,]2 z | [E,G,]2 z | ([E,C-]3 | [F,C-]3 | [E,C-]3 | [D,C]3) | %72
 ([E,C-]3 | [F,C-]3 | [E,C-]3 | [D,C]3) | ([E,C-]3 | [F,C-]3 | [E,C-]3 |!ped! [D,C-]3) | %80
 F2 A!ped-up! | G3 | F3 | C3- | C2 x/ =B,/ |!ped! z (7:1:7(G,2 =E2 C2 G,2 =E,2 C,2- G,,2-) | %86
 !fermata![C,,G,,C,]2!ped-up! z |] %87
V:4
 x | x3 | x3 | x3 | x3 | x3 | x3 | x3 | x3 | x3 | x3 | x3 | x3 | x3 | .[G,,,G,,]2 x | .[C,,C,]2 x | %16
 x3 | x3 | x3 | x3 | B,,3- | B,,3 | B,,3- | B,,3 | B,,3 | E,3 | x3 | x3 | x3 | x3 | x3 | x3 | x3 | %33
 x3 | A,3 | x3 | x3 | x3 | x3 | x3 | x3 | x3 | x3 | x3 | x3 | x3 | x3 | x3 | x3 | x3 | x3 | x3 | %52
 x3 | x3 | x3 | x3 | x3 | x3 | x3 | x3 | x3 | x3 | x3 | x3 | x3 | x3 | .[G,,,G,,]2 x | %67
 .[C,,C,]2 x | x3 | x3 | x3 | x3 | x3 | x3 | x3 | x3 | x3 | x3 | x3 | x3 | [D,C]3 | [G,-E]3 | %82
 !fermata![G,D]3 | A,2 G, | (F,3 | C,3) | x3 |] %87
V:5
 x | x3 | x3 | x3 | x3 | x3 | x3 | x3 | x3 | x3 | x3 | x3 | x3 | x3 | x3 | x3 | x3 | x3 | x3 | x3 | %20
 x3 | x3 | x3 | x3 | x3 | x3 | x3 | x3 | x3 | x3 | x3 | x3 | x3 | x3 | x3 | x3 | x3 | x3 | x3 | %39
 x3 | x3 | x3 | x3 | x3 | x3 | x3 | x3 | x3 | x3 | x3 | x3 | x3 | x3 | x3 | x3 | x3 | x3 | x3 | %58
 x3 | x3 | x3 | x3 | x3 | x3 | x3 | x3 | x3 | x3 | (G3 | A3 | G3 | F3) | (G3 | A3 | G3 | F3) | G3 | %77
 A3 | G3 | x3 | x3 | !arpeggio!A3- | A2 G | =E3 | F2 D | =E3- | E2 x |] %87

